X: 94
T: May This Be the Day
C: Teton Sioux band 1911-1914
N: Derived from sioux094.krn
O: South Dakota, U.S.A.
N: Teton Sioux Music by Frances Densmore, 1918
Z: transcribed to **kern format by Craig Sapp
L: 1/4
M: 2/4
Q: 1/4=58
K: B clef=bass
%%linebreak <none>
DDD | 
D3 | 
CCC | 
C3 [I:setbarnb 1]||  
[M:2/4]B,B, | 
B,2- | 
B,2 ||  
[M:3/4]B,DD | 
D3 | 
CCC | 
C3 ||  
[M:2/4]B,B, | 
B,2- | 
B,2 | 
B,B, | 
B,B, ||  
[M:3/4]CCC ||  
[M:2/4]B,G, ||  
[M:3/4]B,B,B, | 
C3 | 
B,B,B, | 
B,3 ||  
[M:2/4]F,F, | 
F,2- | 
F,2 ||  
[M:3/4]B,CC | 
C3 | 
B,B,B, | 
B,3 ||  
[M:2/4]F,F, | 
F,2- | 
F,2 ||  
[M:3/4]D,D,D, | 
D,3 | 
C,C,C, | 
C,3 ||  
[M:2/4]B,,B,, | 
B,,2- | 
B,,2 ||  
[M:3/4]C,C,C, | 
C,3 | 
B,,B,,B,, | 
B,,3 ||  
[M:2/4]B,,B,, | 
B,,2- | 
B,,2 |]  



